X:34
T:Polonäs
T:ur Johan Erik Carlssons notbok (nr 34)
B:Johan Erik Carlssons notbok, nr 34
B:http://www.smus.se/earkiv/fmk/browselarge.php?lang=sw&katalogid=MMD+67&bildnr=00020
O:Snavlunda, Närke / Bona, Östergötland
R:Slängpolska
N:Det andra och tredje korsförtecknet är skrivna inom parentes i förlagan.
Z:Nils Liberg
M:3/4
L:1/16
K:Dm
F2 | FED^C D4 F2A2 | G2FG A4 ^c4 | d2e2 fefg a2f2 | d2^cd e6 ::
f2 | e2>B2 A4 F2G2 | A2BA G4 F4 | E2^C2 D2F2 A2F2 | FED^C D6 :|

